X: 2
T: Prosten Mörtsells vuolle
S: DLV 158
O: Malå, Lappland
R: Jojk
M: 2/4
L: 1/4
K: A
|: A3/2 A/2 A A | B2 E2 | c2 B A | B3 E | A2 B c | d2 c B | A2 G G | A3 z :|
|: e2 d c | d2 c B | c2 B A | B3 E | A2 B c | d2 c B | A2 c c | A3 z :|

